X:1
T:Egloshayle, 78.78 D
T:Egloshayle, 78.78 D
T:Robert G. Staples, 1880
T:Public Domain Courtesy of the Cyber Hymnal™
C:Robert G. Staples, 1880
Z:Public Domain
Z:Courtesy of the Cyber Hymnal™
%%score 1 ( 2 3 )
L:1/8
Q:1/4=110
M:4/4
K:Ab
V:1 treble 
V:2 bass 
V:3 bass 
V:1
 [Ec]3 [Ec] [Ec]3 [DB] | [CA]3 [EG] [DF]4 | [CE]3 [DF] [CE]3 [EA] | [EG]2 [EA]2 [EB]2 [Ed]2 | %4
 [Ec]3 [Ec] [Ec]3 [DB] | [CA]3 [EG] [DF]4 | [CE]3 [DF] [CE]2 [EA]2 | [EG]2 [DB]2 [DB]2 [CA]2 | %8
 [Ec]3 [Ed] [Ee]3 [Ec] | [FB]3 [FA] [Fd]4 | [Fd]3 [Fc] [FB]3 [FA] | [EG]3 [EA] [EB]2 [Ed]2 | %12
 [Ec]3 [Ec] [Ec]3 [DB] | [CA]3 [EG] [DF]4 | [CE]3 [DF] [CE]2 [EA]2 | [EG]2 [DB]2 [DB]2 [CA]2 |] %16
V:2
 [A,,A,]3 [A,,A,] [A,,A,]3 [E,G,] | [F,A,]3 [C,A,] [D,A,]4 | [A,,A,]3 [A,,A,] [A,,A,]3 [A,,C] | %3
 [E,B,]2 [E,C]2 [E,G,]2 [E,B,]2 | [A,,A,]3 [A,,A,] [A,,A,]3 [E,G,] | [F,A,]3 [C,A,] [D,A,]4 | %6
 [A,,A,]3 [A,,A,] [A,,A,]2 [A,,C]2 | [E,B,]2 [E,G,]2 [A,,A,]2 [A,,A,]2 | A,3 [A,B,] [A,C]3 A, | %9
 [D,A,]3 [D,A,] [D,A,]4 | [B,,B,]3 [C,=A,] [D,B,]3 [D,B,] | [E,B,]3 [E,C] [F,A,]2 [E,B,]2 | %12
 [A,,A,]3 [A,,A,] [A,,A,]3 [E,G,] | [F,A,]3 [C,A,] [D,A,]4 | [A,,A,]3 [A,,A,] [A,,A,]2 [A,,C]2 | %15
 [E,B,]2 [E,G,]2 [A,,A,]2 [A,,A,]2 |] %16
V:3
 x8 | x8 | x8 | x8 | x8 | x8 | x8 | x8 | A,3 x A, x3 | x8 | x8 | x8 | x8 | x8 | x8 | x8 |] %16

